X: 27834
T: Mother And Child, The
R: reel
M: 4/4
K: Dmajor
A2GE FD~D2|EFGF EFGE|A2GE FD~D2|EFGE A3B:|
|:c3A cded|fded cAAB|c3A cded|fdec d3e|
c3A cded|fded cAAe|f2ec dfed|cABc d4||

